file/bemis-company.svg

<svg clip-rule="evenodd" fill-rule="evenodd" stroke-linejoin="round" stroke-miterlimit="1.41421" viewBox="0 0 560 400" xmlns="http://www.w3.org/2000/svg"><g fill-rule="nonzero" transform="matrix(.761271 0 0 .761271 -53.8631 -337.056)"><path d="m263.144 93.759c.28 6.685 4.141 11.109 10.922 11.109 3.859 0 7.628-1.781 9.133-5.363h14.972c-2.925 11.292-13.365 16.189-24.291 16.189-15.914 0-26.745-9.598-26.745-25.977 0-14.978 11.953-25.717 26.37-25.717 17.517 0 26.275 13.19 25.513 29.759zm195.565-13.938h-14.79c0-2.068-.756-3.384-2.074-4.231-1.316-.851-3.103-1.221-5.082-1.221-2.627 0-6.881.279-6.881 3.67 0 4.612 10.748 5.462 18.082 7.061 9.898 1.979 12.442 9.123 12.442 13.182 0 13.083-12.442 17.412-23.447 17.412-11.586 0-23.453-3.848-23.915-17.505h15.247c0 2.45 1.037 4.232 2.634 5.455 1.512 1.136 3.676 1.701 5.943 1.701 3.095 0 7.523-1.315 7.523-5.184 0-3.765-5-4.516-7.812-5.176-10.077-2.544-22.696-2.824-22.696-16.004 0-11.773 12.71-14.981 22.322-14.981 10.73 0 21.93 3.112 22.504 15.821zm-242.162 34.461h-32.302v-67.22h31.453c11.584-.188 24.282 2.825 24.282 16.856 0 6.018-3.564 10.917-8.837 13.555 7.163 2.073 11.584 8.287 11.584 15.91 0 16.007-11.764 20.899-26.18 20.899zm189.471 0h-16.009v-48.862h16.009zm-85.16 0h-16.009v-48.862h15.545v6.691h.18c2.924-4.903 8.098-8.111 14.025-8.111 6.13 0 11.586 1.987 14.233 7.921 3.848-5.185 8.663-7.921 15.245-7.921 15.534 0 17.22 11.777 17.22 21.1v29.182h-16.004v-28.712c0-5.27-2.531-8.38-6.679-8.38-6.868 0-7.532 5.271-7.532 13.182v23.91h-15.995v-27.771c0-5.747-1.711-9.321-6.04-9.321-5.738 0-8.189 3.305-8.189 13.278zm-105.062-29.469h-14.027v15.443h14.027c5.55 0 9.413-1.975 9.413-7.529 0-5.929-4.144-7.914-9.413-7.914zm67.21 0c-.277-5.458-4.136-9.978-9.501-9.978-5.66 0-9.419 4.046-10.361 9.978zm-67.693-24.193h-13.544v12.891h13.544c3.014 0 7.159-1.591 7.159-6.399 0-4.898-3.485-6.492-7.159-6.492zm190.705-1.319h-16.009v-12.239h16.009z" fill="#44697d" transform="translate(200.696 624.855)"/><path d="m54.711 102.229c.708.727 1.414 1.452 2.131 2.167 14.229 14.229 29.129 25.643 42.543 32.979-4.85 13.88-11.468 22.443-18.769 22.443-12.323 0-22.704-24.357-25.905-57.589zm22.872 11.987c1.009.011 2.024.025 3.036.025 20.123 0 38.73-2.466 53.403-6.763 6.385 13.241 7.759 23.979 2.596 29.141-8.714 8.712-33.277-1.168-59.035-22.403v-.001zm-30.564-36.632c-.016 1.01-.029 2.018-.028 3.029-.004 20.126 2.466 38.737 6.76 53.411-13.24 6.383-23.976 7.756-29.137 2.594-8.712-8.712 1.166-33.275 22.405-59.034zm55.209 28.935c33.231-3.2 57.584-13.583 57.589-25.905 0-7.297-8.566-13.918-22.443-18.77-7.334 13.417-18.75 28.316-32.978 42.544-.718.716-1.442 1.425-2.168 2.131zm-43.228-51.806c-33.23 3.198-57.584 13.58-57.583 25.902 0 7.301 8.562 13.919 22.44 18.771 7.338-13.413 18.75-28.316 32.986-42.549.712-.714 1.433-1.419 2.157-2.124zm55.214 28.94c.014-1.016.026-2.029.026-3.04 0-20.123-2.462-38.731-6.763-53.403 13.243-6.385 23.981-7.757 29.141-2.597 8.71 8.715-1.169 33.276-22.404 59.04v.001zm-7.698-24.65c-.703-.723-1.409-1.447-2.121-2.161-14.233-14.233-29.136-25.649-42.55-32.984 4.852-13.878 11.469-22.441 18.771-22.441 12.322 0 22.703 24.355 25.9 57.586zm-22.87-11.986c-1.008-.014-2.019-.025-3.027-.025-20.129-.001-38.738 2.464-53.408 6.761-6.387-13.243-7.761-23.977-2.597-29.139 8.711-8.712 33.272 1.166 59.032 22.403l.001.001z" fill="#e62b28" transform="translate(200.696 624.855)"/><path d="m667.706 695.913h1.145c.967 0 1.855-.048 1.855-1.16 0-.933-.806-1.081-1.549-1.081h-1.451zm1.261-5.624c3.285 0 6.04 2.596 6.04 5.995 0 3.466-2.755 6.059-6.04 6.059-3.306 0-6.075-2.593-6.075-6.059 0-3.399 2.769-5.995 6.075-5.995m0 11.169c2.788 0 4.946-2.226 4.946-5.174 0-2.883-2.158-5.108-4.946-5.108-2.823 0-4.981 2.225-4.981 5.108 0 2.948 2.158 5.174 4.981 5.174m-2.355-8.672h2.724c1.677 0 2.465.663 2.465 2.014 0 1.273-.807 1.805-1.856 1.918l2.019 3.111h-1.178l-1.918-3.03h-1.162v3.03h-1.094z" fill="#44697d"/></g></svg>

<?xml version="1.0" encoding="UTF-8" standalone="no"?>
<!DOCTYPE svg PUBLIC "-//W3C//DTD SVG 1.1//EN" "http://www.w3.org/Graphics/SVG/1.1/DTD/svg11.dtd">
<svg width="100%" height="100%" viewBox="0 0 560 400" version="1.1" xmlns="http://www.w3.org/2000/svg" xmlns:xlink="http://www.w3.org/1999/xlink" xml:space="preserve" xmlns:serif="http://www.serif.com/" style="fill-rule:evenodd;clip-rule:evenodd;stroke-linejoin:round;stroke-miterlimit:1.41421;">
    <g transform="matrix(0.761271,0,0,0.761271,-53.8631,-337.056)">
        <g id="path3457" transform="matrix(1,0,0,1,200.696,624.855)">
            <path d="M263.144,93.759C263.424,100.444 267.285,104.868 274.066,104.868C277.925,104.868 281.694,103.087 283.199,99.505L298.171,99.505C295.246,110.797 284.806,115.694 273.88,115.694C257.966,115.694 247.135,106.096 247.135,89.717C247.135,74.739 259.088,64 273.505,64C291.022,64 299.78,77.19 299.018,93.759L263.144,93.759ZM458.709,79.821L443.919,79.821C443.919,77.753 443.163,76.437 441.845,75.59C440.529,74.739 438.742,74.369 436.763,74.369C434.136,74.369 429.882,74.648 429.882,78.039C429.882,82.651 440.63,83.501 447.964,85.1C457.862,87.079 460.406,94.223 460.406,98.282C460.406,111.365 447.964,115.694 436.959,115.694C425.373,115.694 413.506,111.846 413.044,98.189L428.291,98.189C428.291,100.639 429.328,102.421 430.925,103.644C432.437,104.78 434.601,105.345 436.868,105.345C439.963,105.345 444.391,104.03 444.391,100.161C444.391,96.396 439.391,95.645 436.579,94.985C426.502,92.441 413.883,92.161 413.883,78.981C413.883,67.208 426.593,64 436.205,64C446.935,64 458.135,67.112 458.709,79.821ZM216.547,114.282L184.245,114.282L184.245,47.062L215.698,47.062C227.282,46.874 239.98,49.887 239.98,63.918C239.98,69.936 236.416,74.835 231.143,77.473C238.306,79.546 242.727,85.76 242.727,93.383C242.727,109.39 230.963,114.282 216.547,114.282ZM406.018,114.282L390.009,114.282L390.009,65.42L406.018,65.42L406.018,114.282ZM320.858,114.282L304.849,114.282L304.849,65.42L320.394,65.42L320.394,72.111L320.574,72.111C323.498,67.208 328.672,64 334.599,64C340.729,64 346.185,65.987 348.832,71.921C352.68,66.736 357.495,64 364.077,64C379.611,64 381.297,75.777 381.297,85.1L381.297,114.282L365.293,114.282L365.293,85.57C365.293,80.3 362.762,77.19 358.614,77.19C351.746,77.19 351.082,82.461 351.082,90.372L351.082,114.282L335.087,114.282L335.087,86.511C335.087,80.764 333.376,77.19 329.047,77.19C323.309,77.19 320.858,80.495 320.858,90.468L320.858,114.282ZM215.796,84.813L201.769,84.813L201.769,100.256L215.796,100.256C221.346,100.256 225.209,98.281 225.209,92.727C225.209,86.798 221.065,84.813 215.796,84.813ZM283.006,84.813C282.729,79.355 278.87,74.835 273.505,74.835C267.845,74.835 264.086,78.881 263.144,84.813L283.006,84.813ZM215.313,60.62L201.769,60.62L201.769,73.511L215.313,73.511C218.327,73.511 222.472,71.92 222.472,67.112C222.472,62.214 218.987,60.62 215.313,60.62ZM406.018,59.301L390.009,59.301L390.009,47.062L406.018,47.062L406.018,59.301Z" style="fill:rgb(68,105,125);fill-rule:nonzero;"/>
        </g>
        <g id="path3483" transform="matrix(1,0,0,1,200.696,624.855)">
            <path d="M54.711,102.229C55.419,102.956 56.125,103.681 56.842,104.396C71.071,118.625 85.971,130.039 99.385,137.375C94.535,151.255 87.917,159.818 80.616,159.818C68.293,159.818 57.912,135.461 54.711,102.229ZM77.583,114.216C78.592,114.227 79.607,114.241 80.619,114.241C100.742,114.241 119.349,111.775 134.022,107.478C140.407,120.719 141.781,131.457 136.618,136.619C127.904,145.331 103.341,135.451 77.583,114.216L77.583,114.216L77.583,114.215L77.583,114.216ZM47.019,77.584C47.003,78.594 46.99,79.602 46.991,80.613C46.987,100.739 49.457,119.35 53.751,134.024C40.511,140.407 29.775,141.78 24.614,136.618C15.902,127.906 25.78,103.343 47.019,77.584L47.019,77.584ZM102.228,106.519C135.459,103.319 159.812,92.936 159.817,80.614C159.817,73.317 151.251,66.696 137.374,61.844C130.04,75.261 118.624,90.16 104.396,104.388C103.678,105.104 102.954,105.813 102.228,106.519ZM59,54.713C25.77,57.911 1.416,68.293 1.417,80.615C1.417,87.916 9.979,94.534 23.857,99.386C31.195,85.973 42.607,71.07 56.843,56.837C57.555,56.123 58.276,55.418 59,54.713ZM114.214,83.653C114.228,82.637 114.24,81.624 114.24,80.613C114.24,60.49 111.778,41.882 107.477,27.21C120.72,20.825 131.458,19.453 136.618,24.613C145.328,33.328 135.449,57.889 114.214,83.653L114.214,83.654L114.214,83.654L114.214,83.653ZM106.516,59.003C105.813,58.28 105.107,57.556 104.395,56.842C90.162,42.609 75.259,31.193 61.845,23.858C66.697,9.98 73.314,1.417 80.616,1.417C92.938,1.417 103.319,25.772 106.516,59.003ZM83.646,47.017C82.638,47.003 81.627,46.992 80.619,46.992C60.49,46.991 41.881,49.456 27.211,53.753C20.824,40.51 19.45,29.776 24.614,24.614C33.325,15.902 57.886,25.78 83.646,47.017L83.647,47.018L83.646,47.017Z" style="fill:rgb(230,43,40);fill-rule:nonzero;"/>
        </g>
        <path id="path3515" d="M667.706,695.913L668.851,695.913C669.818,695.913 670.706,695.865 670.706,694.753C670.706,693.82 669.9,693.672 669.157,693.672L667.706,693.672L667.706,695.913ZM668.967,690.289C672.252,690.289 675.007,692.885 675.007,696.284C675.007,699.75 672.252,702.343 668.967,702.343C665.661,702.343 662.892,699.75 662.892,696.284C662.892,692.885 665.661,690.289 668.967,690.289M668.967,701.458C671.755,701.458 673.913,699.232 673.913,696.284C673.913,693.401 671.755,691.176 668.967,691.176C666.144,691.176 663.986,693.401 663.986,696.284C663.986,699.232 666.144,701.458 668.967,701.458M666.612,692.786L669.336,692.786C671.013,692.786 671.801,693.449 671.801,694.8C671.801,696.073 670.994,696.605 669.945,696.718L671.964,699.829L670.786,699.829L668.868,696.799L667.706,696.799L667.706,699.829L666.612,699.829L666.612,692.786Z" style="fill:rgb(68,105,125);fill-rule:nonzero;"/>
    </g>
</svg>
